X:1
T:Mentre il bel Maggio
T:Adriano Banchieri Bolognese
T:Source : Canzonette a tre voci di A. Banchieri---Venetia---R.Amadino---1597. Editor : André Vierendeels (05/03/17).
T:Notes : Original clefs : C1, C1, C4 Editorial accidentals above the staff Sub-heading : "Spoglia  Amorosa" 
T:Mentre il bel Maggio
T:©
T:©
T:©
T:©
T:©
T:©
C:Adriano Banchieri Bolognese
Z:©
%%score [ 1 2 3 ]
L:1/8
Q:1/4=100
M:4/4
K:C
V:1 treble nm="Soprano 1" snm="S 1"
V:2 treble nm="Soprano 2" snm="S 2"
V:3 treble-8 nm="Tenor" snm="T"
V:1
 d4 d2 d2 | AGAB cBcd | e2 c2 d3 c/B/ | A4 d2 d2 | c2 c2 edcB | c2 BA B2 A2 | ^G2 A4 G2 | %7
w: Men- tre'il bel|Mag- * * * * * * *|* gio'a- dor- * *|* no, men-|tre'il bel Mag- * * *|* * * * gio'a-|dor- * *|
 A2 A2 A2 A2 | d6 d2 | c2 A2 c2 d2 | edcB A4- | A2 G2 F4 | E8 | z2 D2 D2 D2 | A6 A2 | F2 D2 F2 ED | %16
w: no, ve- sti- va'i|col- li'e|le cam- pa- gne'in-|tor- * * * *||no,-|ve- sti- va'i-|col- li'e|le cam- pa- * *|
 ^C2 D2 D2 C2 | D4 A2 AA | B4 ^c4 | d4 z2 A2 | ^F2 G2 E4 | D4 z4 | D2 DD E4 | ^F4 G2 D2 | %24
w: * gne'in- tor- *|no, li- qui- de|per- le'a-|mor da|gl'oc- chi spar-|se,|li- qui- de per-|le'a- mor da|
 E2 F2 E4 | D4 F4 | F4 F2 A2- | A2 A2 ^G4 | A2 A2 c3 c | c2 G2 A2 GF | G4 A2 c2 | ABcA B2 G2 | %32
w: gl'oc- chi spar-|se, e|se ch'il mio|_ cor ar-|se, ond' io di|bal- se- mi- * *|* ni, con|ro- * * * * se,|
 z2 A2 dcBd | c4 B4 | B2 A2 ^G4 | A2 A2 A3 A | A2 _B2 A4 | ^F4 z2 F2- | F2 E4 D2 | CDEC D2 E2 | %40
w: con ro- * * *|* s'e|gel- so- mi-|ni, con ro- se|gel- so- mi-|ni, tes|_ sei gir-|lan- * * * * d'a|
 F3 G F2 F2 | F2 G2 A4 | z2 E4 F2 | G4 G2 A2 |"^-natural" GFGA G2 F2 | E2 D2 E4 | ^F4 z2 A2- | %47
w: Clo- ri che'a mi-|o no- me,|ne fa-|ces- se co-|ro- * * * * n'al-|le sue chio-|me, tes-|
 A2 G4 F2 | ABcA _B2 G2 | A3 G A2 A2 | D4 E4 | z2 ^C4 D2 | E4 E2 F2 | EDEF E2 D2 | ^C2 D2 E4 | %55
w: * sei gir-|lan- * * * * d'a|Clo- ri che'a mio|no- me,|ne fa-|ces- se co-|ro- * * * * n'al-|le sue chio-|
 ^F8 |] %56
w: me.|
V:2
 z8 | z4 A4 | A2 A2 DCDE | FEFG A2 F2 | A4 E2 e2 | e2 e2 dcde | d2 c2 B4 | A4 z4 | z2 D2 D2 D2 | %9
w: |Men-|tre'il bel Mag- * * *|* * * * * gio'a-|dor- no, men-|tre'il bel Mag- * * *|* gio'a- dor-|no,|ve- sti- va'i|
 A6 B2 | c2 A2 c2 c2 | d4 A4 | z2 A2 A2 A2 | d6 d2 | c2 A2 c3 B | A6 GF | E2 D2 E4 | ^F8 | %18
w: col- li'e|le cam- pa- gne'in-|tor- no,|ve- sti- va'i|col- li'e|le cam- pa- *||* gne'in- tor-|no,|
 z4 A2 AA | B4 ^c4 | d4 z2 A2 | ^F2 G2 E4 | D2 d2 ^c2 e2 | A4 B2 d2 | ^c2 d2 c4 | d4 A4 | %26
w: li- qui- de|per- le'a-|mor, da|gl'oc- chi spar-|se, da gl'oc- chi|spar- se, da|gl'oc- chi spar-|se, e|
 A4 A2 d2- | d2 c2 B4 | A4 z2 E2 | E3 E E2 D2 | E4 F4 | z2 A2 GABG | A2 F2 z2 G2 | CDEC D2 d2 | %34
w: se ch'il mio|_ cor ar-|se, ond'|io di bal- se-|mi- ni|con ro- * * *|* se, con|ro- * * * * se|
 d2 c2 B4 | A2 ^c2 d3 e | d2 d2 ^c4 | d4 z2 A2- |"^-natural" A2 G4 F2 | ABcA _B2 G2 | A3 G A2 A2 | %41
w: gel- so- mi-|ni, con ro- se|gel- so- mi-|ni, tes-|* sei gir-|lan- * * * * d'a|Clo- ri che'a mio|
 D4 E4 | z2 ^C4 D2 |"^-natural" E4 E2 F2 | EDEF E2 D2 | ^C2 D2 D2 C2 |"^-natural" D4 z2 F2- | %47
w: no- me,|ne fa-|ces- se co-|ro- * * * * n'al-|le sue chio- *|me, tes-|
 F2 E4 D2 | CDEC D2 E2 | F3 G F2 F2 | F2 G2 A4 | z2 E4 ^F2 | G4 G2 A2 | GFGA G2 F2 | E2 D2 D2 ^C2 | %55
w: * sei gir-|lan- * * * * d'a|Clo- ri che'a mio|no- * me,|ne fa-|ces- se co-|ro- * * * * n'al-|le sue chio- *|
 D8 |] %56
w: me.|
V:3
 z8 | z8 | z8 | d4 d2 d2 | AGAB cBcd | e2 dc d2 d2 | e8 | A8 | z8 | z8 | A4 A2 A2 | d6 d2 | %12
w: |||Men- tre'il bel|Mag- * * * * * * *|* * * * gio'a-|dor-|no,|||ve- sti- va'i|col- li'e|
 c2 A2 c2 c2 | B8 | A4 F4 | F6 G2 | A2 _B2 A4 | D8 | z8 | z4 A2 AA | B4 ^c4 | d4 z2 A2 | %22
w: le cam- pa- gne'in-|tor-|no, e|le cam-|pa- gne'in- tor-|no,||li- qui- de|per- le'a-|mor da|
 ^F2 G2 E4 | D2 d2 G2 _B2 | A8 | D4 D4 | d4 d2 d2- | d2 d2 e4 | A4 z2 A2 | c3 c c2 d2 | c4 F4 | %31
w: gl'oc- chi spar-|se, da gloc- chi|spar-|se, e|se ch'il mio|_ cor ar-|se, ond'|io di bal- se-|mi- ni|
 z2 F2 EFGE | F2 D2 z2 G2 | ABcA B2 G2 | d2 d2 e4 | A2 A2 d3 ^c | d2 G2 A4 | D4 d4 | c4 _B4 | %39
w: con ro- * * *|* se, con|ro- * * * * se|gel- so- mi-|ni, con ro- se|gel- so- mi-|ni, tes-|sei gir-|
 A4 G4 | F3 E D2 d2 | _B4 A4 | z2 A4 d2 | c4 c2 F2 | c6 d2 | A2 _B2 A4 | D4 d4 | c4 _B4 | A4 G4 | %49
w: lan- d'a|Clo- ri che'a mio|no- me,|ne fa-|ces- se co-|ro- n'al-|le sue chio-|me, tes-|sei gir-|lan- d'a|
 F3 E D2 d2 | _B4 A4 | z2 A4 d2 | c4 c2 F2 | c6 d2 | A2 _B2 A4 | D8 |] %56
w: Clo- ri che'a mio|no- me,|ne fa-|ces- se co-|ro- na'l-|le sue chio-|me.|

